hosted_logos/authing.svg

<?xml version="1.0" encoding="UTF-8"?>
<svg width="2891px" height="1935px" viewBox="0 0 2891 1935" version="1.1" xmlns="http://www.w3.org/2000/svg" xmlns:xlink="http://www.w3.org/1999/xlink">
    <title>Authing</title>
    <g id="ym-1" stroke="none" stroke-width="1" fill="none" fill-rule="evenodd">
        <g id="Authing" fill-rule="nonzero">
            <rect id="jx" x="0" y="0" width="2891" height="1935"></rect>
            <g id="bz-2" transform="translate(767.000000, 445.000000)" fill="#215AE5">
                <g id="bz-12bf-2" transform="translate(0.365529, 642.193762)">
                    <g id="bz-13" transform="translate(0.564433, 0.511560)">
                        <path d="M88.5196359,185.547455 L125.945542,65.2416689 L163.368996,185.547455 L88.5196359,185.547455 Z M141.295484,15.893811 L110.593147,15.893811 L94.4560912,15.893811 L1.04208702e-13,305.880215 L51.0863738,305.880215 L74.2338908,231.472227 L177.657193,231.472227 L200.802258,305.880215 L251.888631,305.880215 L157.43254,15.893811 L141.295484,15.893811 Z" id="Fill-1"></path>
                        <polygon id="Fill-2" points="559.311687 38.0009157 513.384463 38.0009157 513.384463 83.0674639 480.448293 83.0674639 480.448293 128.994688 513.384463 128.994688 513.384463 303.854071 559.311687 303.854071 559.311687 128.994688 592.247857 128.994688 592.247857 83.0674639 559.311687 83.0674639"></polygon>
                        <polygon id="Fill-3" points="851.729316 303.8526 897.654088 303.8526 897.654088 88.7229123 851.729316 88.7229123"></polygon>
                        <path d="M406.907602,210.818953 L406.907602,217.267891 C406.907602,244.176879 385.015543,266.068938 358.106555,266.068938 C331.197566,266.068938 309.305508,244.176879 309.305508,217.267891 L309.305508,210.818953 L309.553167,82.9117576 L263.628395,82.9117576 L263.876054,210.818953 L263.876054,217.267891 C263.876054,269.227201 306.147245,311.498392 358.106555,311.498392 C410.063413,311.498392 452.334604,269.227201 452.334604,217.267891 L452.334604,210.818953 L452.584715,82.9117576 L406.657491,82.9117576 L406.907602,210.818953 Z" id="Fill-4"></path>
                        <path d="M1256.56075,257.08726 C1228.57531,257.08726 1205.88878,231.553881 1205.88878,187.450995 C1205.88878,145.456888 1228.57531,117.814731 1256.56075,117.814731 C1284.54865,117.814731 1307.68391,145.31712 1307.68391,187.450995 C1307.68391,232.900066 1284.54865,257.08726 1256.56075,257.08726 L1256.56075,257.08726 Z M1353.60868,226.306457 L1353.60868,83.2332236 L1307.68391,83.2332236 L1307.68391,106.86625 C1291.30164,88.6449365 1269.09082,78.3339928 1244.80799,78.3339928 C1195.10704,78.3339928 1154.81957,121.649765 1154.81957,187.450995 C1154.81957,256.560065 1195.10704,296.567998 1244.80799,296.567998 C1269.09082,296.567998 1291.30164,287.495349 1307.68391,269.936093 L1307.68391,293.478393 L1307.72314,293.478393 L1307.72314,306.180103 C1307.72314,332.816912 1286.04932,354.490736 1259.41005,354.490736 C1232.77079,354.490736 1211.09942,332.816912 1211.09942,306.180103 L1164.69404,306.180103 C1164.69404,358.406688 1207.18102,400.896113 1259.41005,400.896113 C1311.63909,400.896113 1354.12852,358.406688 1354.12852,306.180103 L1354.12852,226.306457 L1353.60868,226.306457 Z" id="Fill-6"></path>
                        <path d="M874.692192,5.81753009 C858.079435,5.81753009 844.610228,19.2867367 844.610228,35.901946 C844.610228,52.5147031 858.079435,65.9839097 874.692192,65.9839097 C891.307401,65.9839097 904.776608,52.5147031 904.776608,35.901946 C904.776608,19.2867367 891.307401,5.81753009 874.692192,5.81753009" id="Fill-8"></path>
                        <path d="M1054.82328,75.5923362 L1044.44367,75.5923362 C1019.93281,75.5923362 983.16896,93.2545782 983.16896,127.095561 L983.16896,92.9701384 L937.244188,92.9701384 L937.244188,303.21776 L983.16896,303.21776 L983.16896,171.566257 C983.16896,142.604888 1006.64996,119.126342 1035.61133,119.126342 C1061.57872,119.126342 1082.62972,140.177341 1082.62972,166.144736 L1082.62972,303.852845 L1133.44392,303.852845 L1133.44392,154.212976 C1133.44392,110.791765 1098.24203,75.5923362 1054.82328,75.5923362" id="Fill-10"></path>
                        <path d="M737.373961,75.5923362 L726.99436,75.5923362 C704.719779,75.5923362 676.165453,86.4280223 668.443893,111.429302 L668.443893,3.12626106e-13 L622.516669,3.12626106e-13 L622.516669,302.232029 L668.443893,302.232029 L668.443893,154.975569 C675.3906,134.152612 695.004688,119.126342 718.159561,119.126342 C744.129407,119.126342 765.180407,140.177341 765.180407,166.144736 L765.180407,303.852845 L815.994601,303.852845 L815.994601,154.212976 C815.994601,110.791765 780.79272,75.5923362 737.373961,75.5923362" id="Fill-12"></path>
                    </g>
                </g>
                <g id="bz" transform="translate(450.087598, 0.774386)">
                    <g id="bz-11bf" transform="translate(0.795840, 0.000000)">
                        <path d="M230.329504,479.550795 C121.461627,422.191662 47.2274069,307.942073 47.2274069,176.335253 C47.2274069,173.00872 47.3082134,169.701041 47.4024876,166.39875 L230.359133,54.8319362 L413.259213,166.39875 C413.350794,169.701041 413.434294,173.00872 413.434294,176.335253 C413.434294,307.942073 339.19738,422.191662 230.329504,479.550795 M459.636745,140.842353 L459.636745,140.842353 L230.359133,0.990578522 L1.02226165,140.842353 C0.903745481,144.985032 0.804084155,149.130405 0.804084155,153.300019 C0.804084155,318.274529 93.858133,461.487853 230.329504,533.392153 C366.800874,461.487853 459.854923,318.274529 459.854923,153.300019 C459.854923,149.130405 459.755262,144.985032 459.636745,140.842353" id="Fill-14"></path>
                        <path d="M271.282497,120.881267 L230.690708,196.262939 L277.493822,281.602663 L230.66916,355.39514 L183.847192,281.602663 L230.650305,196.262939 L190.912372,120.463767 L89.0935136,187.527759 L89.0935136,195.457568 C89.0935136,298.181459 146.87284,387.305619 231.843548,431.870393 C316.816948,386.928522 374.596275,297.804362 374.596275,195.457568 C374.596275,192.817889 374.596275,190.172824 374.596275,187.527759 L271.282497,120.881267 Z" id="Fill-16"></path>
                    </g>
                </g>
            </g>
        </g>
    </g>
</svg>

<svg xmlns="http://www.w3.org/2000/svg" role="img" viewBox="740.92 418.92 1408.16 1096.16"><title>Authing logo</title><g fill-rule="nonzero" fill="none" stroke="none" stroke-width="1"><path d="M0 0h2891v1935H0z"/><g fill="#215AE5" transform="translate(767 445)"><g transform="translate(.366 642.194) translate(.564 .512)"><path d="M88.51964 185.54746l37.4259-120.3058 37.42346 120.3058H88.51964zM141.29548 15.8938H94.4561L0 305.88021h51.08637l23.14752-74.40798h103.4233l23.14507 74.40799h51.08637l-94.45609-289.9864h-16.13706z"/><path d="M559.312 38.001h-45.928v45.066h-32.936v45.928h32.936v174.859h45.928V128.995h32.936V83.067h-32.936z"/><path d="M851.729 303.853h45.925V88.723h-45.925z"/><path d="M406.9076 210.81895v6.44894c0 26.90899-21.89206 48.80105-48.80104 48.80105-26.909 0-48.80105-21.89206-48.80105-48.80105v-6.44894l.24766-127.9072h-45.92478l.24766 127.9072v6.44894c0 51.95931 42.2712 94.2305 94.2305 94.2305 51.95686 0 94.22805-42.27119 94.22805-94.2305v-6.44894l.25011-127.9072H406.6575l.25011 127.9072z"/><path d="M1256.56075 257.08726c-27.98544 0-50.67197-25.53338-50.67197-69.63627 0-41.9941 22.68653-69.63626 50.67197-69.63626 27.9879 0 51.12316 27.50239 51.12316 69.63627 0 45.44907-23.13526 69.63626-51.12316 69.63626zm97.04793-30.7808V83.23322h-45.92477v23.63303c-16.38227-18.22131-38.59309-28.53226-62.87592-28.53226-49.70095 0-89.98842 43.31578-89.98842 109.117 0 69.10908 40.28747 109.117 89.98842 109.117 24.28283 0 46.49365-9.07264 62.87592-26.6319v23.5423h.03923v12.70171c0 26.63681-21.67382 48.31064-48.31309 48.31064-26.63926 0-48.31063-21.67383-48.31063-48.31064h-46.40538c0 52.22659 42.48698 94.71601 94.71601 94.71601 52.22904 0 94.71847-42.48942 94.71847-94.716v-79.87365h-.51984z"/><path d="M874.6922 5.81753c-16.61276 0-30.08197 13.4692-30.08197 30.08442 0 16.61275 13.4692 30.08196 30.08196 30.08196 16.61521 0 30.08442-13.4692 30.08442-30.08196 0-16.61521-13.4692-30.08442-30.08442-30.08442"/><path d="M1054.82328 75.59234h-10.37961c-24.51086 0-61.27471 17.66224-61.27471 51.50322V92.97014h-45.92477v210.24762h45.92477v-131.6515c0-28.96137 23.481-52.43992 52.44237-52.43992 25.96739 0 47.01839 21.051 47.01839 47.0184v137.7081h50.8142V154.21299c0-43.42121-35.20189-78.62064-78.62064-78.62064"/><path d="M737.37396 75.59234h-10.3796c-22.27458 0-50.8289 10.83568-58.55047 35.83696V0h-45.92722v302.23203h45.92722V154.97557c6.94671-20.82296 26.5608-35.84923 49.71567-35.84923 25.96985 0 47.02085 21.051 47.02085 47.0184v137.7081h50.8142V154.21299c0-43.42121-35.20189-78.62064-78.62065-78.62064"/></g><g transform="translate(450.088 .774) translate(.796)"><path d="M230.3295 479.5508C121.46163 422.19165 47.2274 307.94206 47.2274 176.33524c0-3.32653.08081-6.6342.17509-9.9365L230.35913 54.83194l182.90008 111.56681c.09158 3.3023.17508 6.60997.17508 9.9365 0 131.60682-74.23691 245.85641-183.10479 303.21555m229.30725-338.70845L230.35913.99058 1.02226 140.84235c-.11851 4.14268-.21818 8.28805-.21818 12.45767 0 164.9745 93.05405 308.18783 229.52542 380.09213 136.47137-71.9043 229.52542-215.11762 229.52542-380.09213 0-4.16961-.09966-8.31499-.21817-12.45767"/><path d="M271.2825 120.88127l-40.5918 75.38167 46.80312 85.33972-46.82466 73.79248-46.82197-73.79248 46.80311-85.33972-39.73793-75.79917-101.81886 67.06399v7.9298c0 102.7239 57.77933 191.84806 142.75004 236.41283 84.9734-44.94187 142.75272-134.06603 142.75272-236.41282v-7.92981l-103.31377-66.6465z"/></g></g></g></svg>
